X:1
T:Young Collins
R:Morris dance
M:2/2
Q:120
P:(AB)2
C:A/2.(AB)4
N:higher notes are Gemma's variation
%abc2id:chwalshaw@gmail.com:000000018
%abc2 #test list 4:004
K:G
P:A
|:BB de g2 e2 | f2 a2 d3 f | g2 g2 a2 gf | e2 d2 B4 :|
P:B
|:A2 G2 AB c2 | d2 d2 B3 d | e2 d2 ef g2 | a2 a2 [f4g4] | 
BB de g2 e2 | f2 a2 d3 f | g2 [g2b2] a2 gf | e2 d2 [B4e4] :|
%%writefields N
